!!!!SEGMENT: pl-wn--mus-iii-71-143_zelenski-wladyslaw--zlota-rybka.krn
!!!cenid: 18xx:3770
!!!COM: Żeleński, Władysław
!!!COM-rismid: pe41024455
!!!CDT:
!!!CNT:
!!!OTL: Złota rybka
!!!PDT:
!!!AGN:
!!!SMS-siglum: PL-Wn
!!!SMS-shelfmark: Mus.III.71.143
!!!SMS-shelfwork: W
!!!SMS-variant:
!!!SMS-altvar:
!!!NIFC-rismid:
!!!URL-scan: https://polona.pl/item/piesni-1-zlota-rybka,NzAyMzY0Mjg/0/#info:metadata
!!!ONB-nifc:
!!!OMD: Andantino
!!!key: D
**kern	**kern	**dynam	**kern	**text	**dynam
*part2	*part2	*part2	*part1	*part1	*part1
*staff3	*staff2	*	*staff1	*staff1	*
*I"Fortepian.	*I"Fortepian.	*	*I"Głos.	*	*
*Ipiano	*Ipiano	*	*Ivox	*	*
*ICklav	*ICklav	*	*ICvox	*	*
*clefF4	*clefG2	*	*clefG2	*	*
*k[f#c#]	*k[f#c#]	*	*k[f#c#]	*	*
*D:	*D:	*	*D:	*	*
*M6/8	*M6/8	*	*M6/8	*	*
[<8D\	8r	p	8r	.	.
=1	=1	=1	=1	=1	=1
*^	*	*	*	*	*
(4B/	2.D\]	8r	.	2.r	.	.
.	.	8b'\L	.	.	.	.
8A/	.	([8ff#\J	.	.	.	.
!	!	!	!LO:HP:b=2	!	!	!
8G/L	.	16ff#\LL]	<	.	.	.
.	.	16ee\	.	.	.	.
8E/	.	16dd\	.	.	.	.
.	.	16b\	.	.	.	.
8B/J	.	16g\	.	.	.	.
.	.	[16b\JJ	.	.	.	.
=2	=2	=2	=2	=2	=2	=2
8A/L	2.D\	16b/LL]	.	2.r	.	.
.	.	16a/JJ	.	.	.	.
8B/	.	8e/L)	.	.	.	.
8c#/J	.	(16e/L	.	.	.	.
.	.	16g/JJ	.	.	.	.
8d/L)	.	16f#/LL	.	.	.	.
.	.	16g/J	[	.	.	.
!	!	!	!LO:HP:b=2	!	!	!
(8F#/	.	8a/)	>	.	.	.
16A/L	.	8d'/J	]]	.	.	.
16cn/JJ	.	.	.	.	.	.
!!LO:LB:g=original
=3	=3	=3	=3	=3	=3	=3
4B/)	[2.D\	8r	.	2.r	.	.
!	!	!LO:TX:b:i:t=legg.	!	!	!	!
.	.	8g'\L	.	.	.	.
(8A/	.	([8ff#\J	.	.	.	.
8G/L	.	16ff#\LL]	.	.	.	.
.	.	16ee\	.	.	.	.
8E/	.	16dd\	.	.	.	.
.	.	16b\	.	.	.	.
8B/J	.	16g\	.	.	.	.
.	.	[16b\JJ	.	.	.	.
=4	=4	=4	=4	=4	=4	=4
*	*	*^	*	*	*	*
8A/L	4.D\]	16b/LL]	4.ryy	.	2.r	.	.
.	.	16a/JJ	.	.	.	.	.
8B/	.	8e/L)	.	.	.	.	.
8c#/J	.	(16e/L	.	.	.	.	.
.	.	16g/JJ	.	.	.	.	.
!	!	!	!	!LO:HP:b=2	!	!	!
8d/L)	4D\	[4.f#/	4f#\)	<	.	.	.
(16G#X/L	.	.	.	.	.	.	.
16B/J	.	.	.	.	.	.	.
!	!	!	!	!LO:HP:b=2	!	!	!
8A#X/J	8C#\	.	8e\	[ >	.	.	.
*v	*v	*	*	*	*	*	*
=5	=5	=5	=5	=5	=5	=5
8BB\L) 8B	8f#/L]	8d\L	]	8r	.	.
!	!	!	!	!LO:TX:a:i:t=dolce	!	!
8BB\ 8B	8f#/	8d\	pp	[4b\	Do-	.
8BB\J 8B	8f#/J	8d\J	.	.	.	.
8BB\L 8B	8d/L 8f#	4.ryy	.	16b\]	.	.
.	.	.	.	16cc#\	-łem	.
8BB\ 8B	8d/ 8f#	.	.	8dd\	si-	.
8BB\J 8B	8d/J 8f#	.	.	8cc#\	-nej	.
*	*v	*v	*	*	*	*
!!LO:LB:g=original
=6	=6	=6	=6	=6	=6
8BB\L 8B	8d/L 8f#	.	16b\	wo-	.
!	!	!	!	!	!LO:HP:a
.	.	.	16cc#\	-dy,	<
8BB\ 8B	8d/ 8f#	.	8dd\	zło-	.
8BB\J 8B	8d/J 8f#	.	8b\	-ta	.
8BB\L 8B	8d/L 8f#	.	8a/L	ryb-	.
8BB\ 8B	8d/ 8f#	.	8b/J	.	[
8BB\J 8G	8d/J 8e	.	8g/	-ka	.
=7	=7	=7	=7	=7	=7
*^	*^	*	*	*	*
!	!	!	!	!	!	!	!LO:HP:a
(8BB/L	[4.BB\	[4.f#/	(4.d\	.	[4.f#/	mknie,	>
!	!	!	!	!LO:HP:b=2	!	!	!
8F#/	.	.	.	<	.	.	.
[8d/J	.	.	.	.	.	.	.
16d/LL]	8BB\]	4.f#/_	4.e\)	.	8f#/]	.	]
16c#/	.	.	.	.	.	.	.
16B/	4ryy	.	.	[	8r	.	.
16G/	.	.	.	.	.	.	.
!	!	!	!	!LO:HP:b=2	!	!	!
16E/	.	.	.	>	8r	.	.
16G/JJ	.	.	.	.	.	.	.
*v	*v	*	*	*	*	*	*
*	*v	*v	*	*	*	*
=8	=8	=8	=8	=8	=8
8F#\L)	8d/L 8f#]	.	8r	.	.
!	!	!	!LO:TX:a:i:t=dolce	!	!
8BB\ 8B	8d/ 8f#	] pp	[4b\	Z_brze-	.
8BB\J 8B	8d/J 8f#	.	.	.	.
8BB\L 8B	8d/L 8f#	.	16b\]	.	.
.	.	.	16cc#\	-gu	.
8BB\ 8B	8d/ 8f#	.	8dd\	chło-	.
8BB\J 8B	8d/J 8f#	.	8cc#\	-piec	.
!!LO:PB:g=original
=9	=9	=9	=9	=9	=9
8BB\L 8B	8d/L 8f#	.	16b\	mło-	.
!	!	!	!	!	!LO:HP:a
.	.	.	16cc#\	-dy,	<
8BB\ 8B	8d/ 8f#	<	8dd\	pol-	.
8BB\J 8B	8d/J 8a	.	8a/	-ne	.
8E\L 8B	8d/L 8g#X	.	8g#X/L	kwiat-	.
8E\ 8B	8d/ 8f#	.	8cc#/J	.	[
8E\J 8B	8d/J 8g#	[[	8b\	-ki	.
=10	=10	=10	=10	=10	=10
*^	*^	*	*	*	*
!	!	!	!	!	!	!	!LO:HP:a
8AA\ 8A	8ryy	[4.a/	8c#\	.	[4.a/	rwie.	>
(8A/L	[4A\	.	4.ryy	.	.	.	.
[8f#/J	.	.	.	.	.	.	.
16f#/LL]	8A\]	4.g/ 4.a_	.	.	8a/]	.	.
16e/	.	.	.	.	.	.	.
16d/	4ryy	.	4ryy	.	8r	.	]
!	!	!	!	!LO:HP:b=2	!	!	!
16B/	.	.	.	>	.	.	.
16G/	.	.	.	.	8r	.	.
16B/JJ	.	.	.	.	.	.	.
*v	*v	*	*	*	*	*	*
*	*v	*v	*	*	*	*
=11	=11	=11	=11	=11	=11
!	!	!	!LO:TX:a:i:t=poco espr.	!	!
8A\)	8f#/L 8a]	]	16f#/	Wy-	.
.	.	.	16g/	-płyń	.
!	!	!LO:DY:rj	!	!	!
8r	(8A/	p	8a/	ryb-	.
8r	8c#/J 8g	.	8b\	-ko	.
[4.DD/ [4.D	8d/L 8f#	.	4a/	zło-	.
.	8A/	.	.	.	.
.	8f#/J) 8a	.	8dd\	-ta,	.
!!LO:LB:g=original
=12	=12	=12	=12	=12	=12
*	*^	*	*	*	*
4.DD/_ 4.D_	(8c#/L 8g	4.ryy	.	16cc#\	wy-	.
.	.	.	.	16ee\	-płyń	.
.	8A/	.	.	8b\	z_zim-	.
.	8c#/J 8g	.	.	8cc#\	-nych	.
8DD/] 8D]	4f#/	16d\LL	.	4a/	fal,	.
.	.	16e\JJ	.	.	.	.
8r	.	8B\L	.	.	.	.
8r	8ryy	8c#\J	.	8r	.	.
*	*v	*v	*	*	*	*
=13	=13	=13	=13	=13	=13
[4.DD/ [4.D	8d/L) 8f#	.	16f#/	W_ser-	.
.	.	.	16g/	-cu	.
!	!	!	!	!	!LO:HP:a
.	(8A/	.	8a/	mem	<
.	8c#/J 8g	.	8b\	tęs-	.
4DD/] 4D]	8d/L 8f#	.	8a\L	-kno-	.
.	8A/	.	8ee\J	.	.
8GG#X/	8B/J) 8f#	.	8dd\	-ta,	.
=14	=14	=14	=14	=14	=14
(4.CC#/ 4.C#	(8c#/L 8e#X	.	16r	.	[
.	.	.	16b\	na-	.
.	8d/ 8b	.	8dd\	-dzie-	.
.	8B/J 8e#	.	16cc#\	-ja	.
.	.	.	16b\	i	.
4.FF#/)	8A/L 8f#	.	(16a/LL	żal	.
.	.	.	16b/JJ	.	.
.	8c#/ 8a	.	8cc#,\)	.	.
.	8A/J) 8f#	.	8f#/	na-	.
!!LO:LB:g=original
=15	=15	=15	=15	=15	=15
*	*^	*	*	*	*
(4.CC#/ 4.C#	(8c#/L 8e#X	4ryy	.	4b\	-dzie-	.
.	8d/ 8b	.	>	.	.	.
!	!	!	!	!	!	!LO:HP:a
.	8e#/J	16c#\LL	.	16a/	-ja	>
.	.	16B\JJ	.	16g#X/	i	.
8FF#/)	8A/L) 8f#	4.ryy	.	4f#/	żal!	]
!	!LO:TX:b:i:t=legg.	!	!	!	!	!
8r	(8f#/	.	]	.	.	.
8r	[>8ff#/J)	.	.	8r	.	.
=16	=16	=16	=16	=16	=16	=16
([4.F#\ 4.G#X 4.B 4.d	(16ff#\LL]	2ryy	.	2.r	.	.
.	16ee\	.	.	.	.	.
.	16dd\	.	.	.	.	.
.	16b\	.	.	.	.	.
.	16g#X\	.	.	.	.	.
.	16b\JJ	.	.	.	.	.
8F#\]) 8A 8c#	16a/LL	.	.	.	.	.
.	16g#/JJ	.	.	.	.	.
8r	4f#/)	8f#\L	.	.	.	.
8r	.	8A\J	.	.	.	.
*	*v	*v	*	*	*	*
=17	=17	=17	=17	=17	=17
[4.DD/ [4.D	8d/L 8f#	.	16f#/	Ach	.
.	.	.	16g/	tam	.
.	8A/	.	8a/	wiecz-	.
.	8c#/J 8g	.	8b\	-na	.
4.DD/] 4.D]	8d/L 8f#	.	4a/	zi-	.
.	8A/	.	.	.	.
.	8G#X/J 8fn	.	8dd\	-ma,	.
!!LO:LB:g=original
=18	=18	=18	=18	=18	=18
*	*^	*	*	*	*
[4.DD/ [4.D	(4e/	8Gn\L	.	16cc#\	mę-	.
.	.	.	.	16ee\	-tne	.
.	.	8B\	.	8b\	ży-	.
.	8c#/	8G\J	.	8cc#\	-cie	.
4DD/] 4D]	8F#/L 8d	4.ryy	.	4a/	tam,	.
.	8A/	.	.	.	.	.
8CC#/ 8C#	8E/J)	.	.	8r	.	.
*	*clefF4	*	*	*	*	*
=19	=19	=19	=19	=19	=19	=19
!	!	!	!	!	!	!LO:HP:a
((4.CCn/ 4.Cn	[4.A/	8D#X\L	.	16f#/	Wio-	<
.	.	.	.	16g/	-sny	.
.	.	8F#\	<	(4a/	ni-	.
.	.	8E\J	.	.	.	.
4.BBB/)) 4.BB	8Dn\L 8A]	4.ryy	.	16a/)	.	.
.	.	.	.	16ccn\	-gdy	.
.	(8F#\ 8d#X	.	.	8b\	nie	.
.	8A\J) 8f#	.	[	8a/	ma,	[[
*	*clefG2	*	*	*	*	*
=20	=20	=20	=20	=20	=20	=20
!	!	!	!	!LO:TX:a:i:t=espr.	!	!
((4.BBB-X/ 4.BB-X	[4.e/	(4G\	.	16g/	tu	.
.	.	.	.	16g/	ja	.
.	.	.	.	(8.ee\	kwia-	.
.	.	8G#X\	.	.	.	.
.	.	.	.	16dd\)	.	.
(4.AAA/)) [4.AA	8A/L) 8e]	4.ryy	.	8cc#\	-ty	.
.	(8Gn;>/ 8B	.	>	8.ff#;>\	kwia-	.
!	!	!	!	!	!	!LO:HP:a
.	8Gn/J 8c#	.	.	.	.	>
.	.	.	]	16ee\	-ty	]
*	*v	*v	*	*	*	*
!!LO:PB:g=original
=21	=21	=21	=21	=21	=21
*^	*	*	*	*	*
8DD/) 8AA]	4ryy	8F#/L) 8d	.	4dd\	mam.	.
!	!	!LO:TX:b:i:t=legg.	!	!	!	!
8r	.	8f#/	.	.	.	.
(8A/	[8D\	([>8ff#/J	.	8r	.	.
8G/L	4.D\_	16ff#\LL]	.	4r	.	.
.	.	16ee\	.	.	.	.
8E/	.	16dd\	.	.	.	.
.	.	16b\	.	.	.	.
8B/J	.	16g\	.	8r	.	.
.	.	[16b\JJ	.	.	.	.
=22	=22	=22	=22	=22	=22	=22
*	*	*^	*	*	*	*
8A/L)	4.D\_	16b/LL]	4.ryy	.	2.r	.	.
.	.	16a/JJ	.	.	.	.	.
(8B/	.	8e/L)	.	.	.	.	.
!	!	!	!	!LO:HP:b=2	!	!	!
8c#/J	.	(16e/L	.	<	.	.	.
.	.	16g/JJ	.	.	.	.	.
8d/L	4D\]	[4.f#/)	4f#\	.	.	.	.
16G#X/L	.	.	.	.	.	.	.
16B/J	.	.	.	[	.	.	.
!	!	!	!	!LO:HP:b=2	!	!	!
8A#X/J	8C#\	.	8e\	>	.	.	.
*v	*v	*	*	*	*	*	*
*	*v	*v	*	*	*	*
=23	=23	=23	=23	=23	=23
8BB\L) 8B	8d/L 8f#]	]	8r	.	.
!	!	!	!	!	!LO:DY:a
8BB\ 8B	8d/ 8f#	pp	[4b\	Nę-	p
8BB\J 8B	8d/J 8f#	.	.	.	.
8BB\L 8B	8d/L 8f#	.	16b\]	.	.
.	.	.	16cc#\	-cisz	.
8BB\ 8B	8d/ 8f#	.	8dd\	mnie	.
8BB\J 8B	8d/J 8f#	.	8cc#\	da-	.
!!LO:LB:g=original
=24	=24	=24	=24	=24	=24
8BB\L 8B	8d/L 8f#	.	16b\	-rem-	.
.	.	.	16cc#\	-nie,	.
!	!	!	!	!	!LO:HP:a
8BB\ 8B	8d/ 8f#	.	8dd\	ni-	<
8BB\J 8B	8d/J 8f#	.	8b\	-czem	.
8BB\L 8B	8d/L 8f#	.	8a/L	kwia-	.
8BB\ 8B	8d/ 8f#	.	8b/J	.	.
8BB\J 8G	8d/J 8e	.	8g/	-tek	[[
=25	=25	=25	=25	=25	=25
*^	*^	*	*	*	*
!	!	!	!	!LO:HP:b=2	!	!	!LO:HP:a
(8BB/L	[4.BB\	&(4.d/ [>4.f#	4.ryy	<	[4.f#/	twój,	>
8F#/	.	.	.	.	.	.	.
[8d/J	.	.	.	.	.	.	.
16d/LL]	8BB\]	4.f#/_	4.e\&)	.	8f#/]	.	.
16c#/	.	.	.	.	.	.	.
16B/	4ryy	.	.	.	8r	.	]
16G/	.	.	.	.	.	.	.
!	!	!	!	!LO:HP:b=2	!	!	!
16E/	.	.	.	>	8r	.	.
16G/JJ	.	.	.	.	.	.	.
*v	*v	*	*	*	*	*	*
*	*v	*v	*	*	*	*
=26	=26	=26	=26	=26	=26
8F#\L)	8d/L 8f#]	]	8r	.	.
!	!	!	!	!	!LO:DY:a
8BB\ 8B	8d/ 8f#	pp	[4b\	Zim-	p
8BB\J 8B	8d/J 8f#	.	.	.	.
8BB\L 8B	8d/L 8f#	.	16b\]	.	.
.	.	.	16cc#\	-na	.
8BB\ 8B	8d/ 8f#	.	8dd\	du-	.
8BB\J 8B	8d/J 8f#	.	8cc#\	-sza	.
!!LO:LB:g=original
=27	=27	=27	=27	=27	=27
8BB\L 8B	8d/L 8f#	.	16b\	we	.
.	.	.	16cc#\	mnie,	.
8BB\ 8B	8d/ 8f#	.	8dd\	zim-	.
8BB\J 8B	8d/J 8a	.	8a/	-na	.
8E\L 8B	8d/L 8g#X	.	8g#X/L	krew	.
8E\ 8B	8d/ 8f#	.	8cc#/J	.	.
8E\J 8B	8d/J 8g#	.	8b\	jak	.
=28	=28	=28	=28	=28	=28
*^	*^	*	*	*	*
8AA\ 8A	8ryy	[4.a/	8c#\	.	[4.a/	zdrój.	.
!	!	!	!	!LO:HP:b=2	!	!	!
(8A/L	[4A\	.	4ryy	<	.	.	.
[8f#/J	.	.	.	.	.	.	.
16f#/LL]	8A\]	4.a/_	(4.g\	.	8a/]	.	.
16e/	.	.	.	.	.	.	.
16d/	4ryy	.	.	[	8r	.	.
16B/	.	.	.	.	.	.	.
!	!	!	!	!LO:HP:b=2	!	!	!
16G/	.	.	.	>	8r	.	.
16B/JJ	.	.	.	.	.	.	.
*v	*v	*	*	*	*	*	*
*	*v	*v	*	*	*	*
=29	=29	=29	=29	=29	=29
!	!	!	!LO:TX:a:i:t=poco espr.	!	!
8A\)	8f#/L) 8a]	]	16f#/	Pró-	.
.	.	.	16g/	-żna	.
!	!	!LO:DY:rj	!	!	!
8r	(8A/	p	8a/	twa	.
8r	8c#/J 8g	.	8b\	tęs-	.
[4.DD/ [4.D	8d/L 8f#	.	4a/	-kno-	.
.	8A/)	.	.	.	.
.	(8f#/J 8a	.	8dd\	-ta,	.
!!LO:LB:g=original
=30	=30	=30	=30	=30	=30
*	*^	*	*	*	*
4.DD/_ 4.D_	8c#/L 8e	4.ryy	.	16cc#\	prze-	.
.	.	.	.	16ee\	-stań	.
.	8A/	.	.	8b\	o	.
.	8c#/J 8g	.	.	8cc#\	mnie	.
8DD/] 8D]	4.f#/	16d\LL	.	4.a/	śnić,	.
.	.	16e\J	.	.	.	.
8r	.	8B\	.	.	.	.
8r	.	8c#\J	.	.	.	.
*	*v	*v	*	*	*	*
=31	=31	=31	=31	=31	=31
[4.DD/ [4.D	8d/L) 8f#	.	16f#/	Bo	.
.	.	.	16g/	ja	.
.	(8A/	.	8a/	ryb-	.
.	8c#/J 8g	.	8b\	-ka	.
4DD/] 4D]	8d/L 8f#	.	8a\L	zło-	.
.	8A/	.	8ee\J	.	.
8GG#X/	8B/J) 8f#	.	8dd\	-ta,	.
=32	=32	=32	=32	=32	=32
(4.CC#/ 4.C#	(8c#/L 8e#X	.	16r	.	.
.	.	.	(16b\KL	w_zim-	.
.	8d/ 8b	.	8dd\J	.	.
.	8B/J 8e#	.	16cc#\)	.	.
.	.	.	16b\	-nie	.
4.FF#/)	8A/L 8f#	.	16a/	mu-	.
.	.	.	16b\	-szę	.
.	8c#/ 8a	.	8cc#\	żyć,	.
.	8A/J) 8f#	.	(8f#/	w_zim-	.
!!LO:PB:g=original
=33	=33	=33	=33	=33	=33
*	*^	*	*	*	*
(4.CC#/ 4.C#	(8c#/L 8e#X	4ryy	.	8.b\)	.	.
.	8d/ 8b	.	.	.	.	.
.	.	.	.	16b\	-nie	.
.	8e#/J	16c#\LL	.	16a/	mu-	.
.	.	16B\JJ	.	16g#X/	-szę	.
8FF#/)	8A/L) 8f#	4.ryy	.	4f#/	żyć.	.
8r	(8f#/	.	.	.	.	.
8r	[>8ff#/J)	.	.	8r	.	.
*	*v	*v	*	*	*	*
=34	=34	=34	=34	=34	=34
([4.F#\ 4.G#X 4.B 4.d	(16ff#\LL]	<	4r	.	.
.	16ee\	.	.	.	.
.	16dd\	.	.	.	.
.	16b\	.	.	.	.
!	!	!	!	!	!LO:HP:a
.	16g#X\	.	(8f#/	West-	<
.	16b\JJ	.	.	.	.
8F#\]) 8A 8c#	16a/LL	.	4ff#\)	.	.
.	16g#/JJ	[	.	.	.
8r	[4f#/	.	.	.	.
8r	.	.	[8cc#\	-chnął	[
=35	=35	=35	=35	=35	=35
!	!LO:TX:b:i:t=poco riten.	!	!	!	!
4.BB\ 4.D [4.F#	16f#/LL])	.	8cc#\]	.	.
.	(16e/	.	.	.	.
.	16d/	.	8.b\	chło-	.
.	16B/	.	.	.	.
.	16G#X/	>	.	.	.
!	!	!	!	!	!LO:HP:a
.	16B/JJ	.	16dd\	-piec	>
8FF#/ 8C# 8F#]	4A/)	.	16cc#/LL	mło-	.
.	.	.	16a/JJ	.	.
8r	.	.	4f#/	-dy,	]]
8r	(8A/	]]	.	.	.
!!LO:LB:g=original
=36	=36	=36	=36	=36	=36
!	!	!	!LO:TX:a:i:t=a tempo	!	!
!	!	!	!LO:TX:a:i:t=dolce	!	!
[4.DD/ [4.D	8f#/L 8a	.	(16f#/LL	Lecz	.
.	.	.	16g/JJ	.	.
.	8A/	.	8a/)	.	.
.	8c#/J 8g	.	8b\	nie	.
4.DD/] 4.D]	8cn/L 8f#	.	4a/	pła-	.
.	8A/	.	.	.	.
.	8G#X/J) 8fn	.	8dd\	-kał,	.
=37	=37	=37	=37	=37	=37
*	*^	*	*	*	*
[4.DD/ [4.D	(4e/	8Gn\L	.	16cc#\	Lecz	.
.	.	.	.	16ee\	nie	.
.	.	8B\	.	8b\	pła-	.
.	8c#/	8G\J	.	8cc#\	-kał,	.
!	!LO:TX:t=P:problem:mixed beam	!	!	!	!	!
4.DD/] 4.D]	4d/	8F#\L	.	4a/	nie	.
.	.	8A\	.	.	.	.
.	8ryy	8E</J)	.	8r	.	.
*	*clefF4	*	*	*	*	*
=38	=38	=38	=38	=38	=38	=38
((4.CCn/ 4.Cn	[>4.A/	8D#X\L	.	16f#/	Do-	.
.	.	.	.	16g/	-łem	.
.	.	8F#\	.	[4a/	zim-	.
.	.	8E\J	.	.	.	.
4.BBB/)) 4.BB	8D#/L 8A]	4.ryy	<	16a/]	.	.
.	.	.	.	16ccn\	-nej	.
*	*clefG2	*	*	*	*	*
.	(>8F#/ 8d#X	.	.	8b\	wo-	.
.	8A/J 8f#	.	[[	8a/	-dy,	.
!!LO:LB:g=original
=39	=39	=39	=39	=39	=39	=39
!	!	!	!	!LO:TX:a:i:t=espr.	!	!
2.AAA#X/ 2.AA#X	16e/LL	(4G\	.	16g/	zło-	.
!	!LO:TX:b:t=cresc. _ _ _:ext=ud:problem:dynamics with extention lies	!	!LO:HP:t=cresc. _ _ _:ext=ud	!	!	!
.	16d/JJ	.	<	16g/	-ta	.
.	[4c#/)	.	.	8.ee\	ryb-	.
.	.	8F#\	.	.	.	.
.	.	.	.	16dd\	-ka	.
.	8.c#/L]	16E\LL	.	4cc#\	mknie,	.
.	.	16F#\JJ	.	.	.	.
.	.	4G\)	.	.	.	.
.	16d/K	.	.	.	.	.
.	8e/J	.	[	8r	.	.
*	*v	*v	*	*	*	*
=40	=40	=40	=40	=40	=40
((4.FFF#/ 4.FF#	(4F#/ [4A#X 4d	[ f	8r	.	.
!	!	!	!	!	!LO:DY:a:rj
.	.	.	8.ff#\	zło-	f
.	8E/ 8A#] 8c#	.	.	.	.
.	.	.	16ee\	-ta	.
!	!	!	!	!	!LO:HP:a
8BBB/L)) 8BB	8D/) 8F# 8B	.	16dd\	ryb-	>
.	.	.	16cc#\	-ka	.
(8F#/	8r	p	[4b\	mknie.	]]
[>8d/J)	8r	.	.	.	.
=41	=41	=41	=41	=41	=41
*^	*	*	*	*	*
(16d\LL]	4.ryy	4.e/ [4.f#	.	8b\]	.	.
16c#\	.	.	.	.	.	.
16B\	.	.	.	8r	.	.
16G\	.	.	.	.	.	.
16E\	.	.	.	8r	.	.
16G\JJ)	.	.	.	.	.	.
4F#/	[4.BB\	8d\L 8f#]	.	4r	.	.
.	.	(8f#\	.	.	.	.
(8A/	.	[8ff#\J	.	8r	.	.
!!LO:LB:g=original
=42	=42	=42	=42	=42	=42	=42
8G/L	4.BB\]	16ff#\LL]	.	2.r	.	.
.	.	16ee\	.	.	.	.
8E/	.	16dd\	.	.	.	.
.	.	16b\	<	.	.	.
[8B/J	.	16g\	.	.	.	.
.	.	[16b\JJ	.	.	.	.
4B/])	(4.C#\	16b/LL]	.	.	.	.
.	.	16a/JJ	.	.	.	.
.	.	8e/L)	.	.	.	.
(8B-X/	.	(16e/L	.	.	.	.
.	.	16g/JJ	[	.	.	.
=43	=43	=43	=43	=43	=43	=43
*	*	*^	*	*	*	*
4A/	[4.D\)	16f#/LL	4.ryy	.	2.r	.	.
.	.	16g/J	.	.	.	.	.
.	.	8a/)	.	.	.	.	.
16B/LL	.	[8d/J	.	.	.	.	.
16cn/JJ	.	.	.	.	.	.	.
4B-X/	4.D\_	(16e/LL	4d\]	>	.	.	.
.	.	16f#/J	.	.	.	.	.
.	.	8g/	.	.	.	.	.
16A/LL	.	16f#/L	8c#X\	.	.	.	.
16G/JJ	.	16e/JJ)	.	]	.	.	.
*v	*v	*	*	*	*	*	*
*	*v	*v	*	*	*	*
=44	=44	=44	=44	=44	=44
16D/LL]) 16A	8d/ 8f#	.	2.r;>	.	.
*ped	*	*	*	*	*
(16DD/	.	pp	.	.	.
16AA/	8r	.	.	.	.
16D/	.	.	.	.	.
16A/	8r	.	.	.	.
16d/JJ)	.	.	.	.	.
4.d;>\ 4.a	4.ff#;>\ 4.ddd	.	.	.	.
*Xped	*	*	*	*	*
==	==	==	==	==	==
*-	*-	*-	*-	*-	*-
!!!system-decoration: s1{(s2,s3)}
!!!RDF**kern: < = below
!!!RDF**kern: > = above
!!!ENC: Filip Voros
!!!END: 2022-03-22
!!!AIN: 1 piano 1 vox
!!!ENC: Marta Chmielewska
!!!END: 2022-03-26
